SVG_Azure_Grouped/Data/SQL Server Automatic Tuning.svg

<?xml version="1.0" encoding="UTF-8" standalone="no"?>
<!-- Generated by Microsoft Visio, SVG Export SQL Server Automatic Tuning.svg Page-1 -->

<svg
   xmlns:dc="http://purl.org/dc/elements/1.1/"
   xmlns:cc="http://creativecommons.org/ns#"
   xmlns:rdf="http://www.w3.org/1999/02/22-rdf-syntax-ns#"
   xmlns:svg="http://www.w3.org/2000/svg"
   xmlns="http://www.w3.org/2000/svg"
   xmlns:sodipodi="http://sodipodi.sourceforge.net/DTD/sodipodi-0.dtd"
   xmlns:inkscape="http://www.inkscape.org/namespaces/inkscape"
   width="0.78739941in"
   height="0.78740358in"
   viewBox="0 0 56.692756 56.693199"
   xml:space="preserve"
   class="st11"
   version="1.1"
   id="svg64"
   sodipodi:docname="SQL Server Automatic Tuning.svg"
   style="font-size:12px;overflow:visible;color-interpolation-filters:sRGB;fill:none;fill-rule:evenodd;stroke-linecap:square;stroke-miterlimit:3"
   inkscape:version="0.92.5 (2060ec1f9f, 2020-04-08)"><metadata
   id="metadata70"><rdf:RDF><cc:Work
       rdf:about=""><dc:format>image/svg+xml</dc:format><dc:type
         rdf:resource="http://purl.org/dc/dcmitype/StillImage" /></cc:Work></rdf:RDF></metadata><defs
   id="defs68" /><sodipodi:namedview
   pagecolor="#ffffff"
   bordercolor="#666666"
   borderopacity="1"
   objecttolerance="10"
   gridtolerance="10"
   guidetolerance="10"
   inkscape:pageopacity="0"
   inkscape:pageshadow="2"
   inkscape:window-width="640"
   inkscape:window-height="480"
   id="namedview66"
   showgrid="false"
   inkscape:zoom="1.8365233"
   inkscape:cx="37.795184"
   inkscape:cy="18.897989"
   inkscape:window-x="0"
   inkscape:window-y="0"
   inkscape:window-maximized="0"
   inkscape:current-layer="svg64" />
	<style
   type="text/css"
   id="style2">
	<![CDATA[
		.st1 {fill:#ffffff;stroke:none;stroke-linecap:butt;stroke-width:0.019125}
		.st2 {fill:#66d7f7;stroke:none;stroke-linecap:butt;stroke-width:0.019125}
		.st3 {fill:#d6e86c;stroke:none;stroke-linecap:butt;stroke-width:0.019125}
		.st4 {fill:#bad80a;stroke:none;stroke-linecap:butt;stroke-width:0.019125}
		.st5 {fill:#00bcf2;stroke:none;stroke-linecap:butt;stroke-width:0.019125}
		.st6 {fill:#9b4f96;stroke:none;stroke-linecap:butt;stroke-width:0.019125}
		.st7 {fill:#a47aaf;stroke:none;stroke-linecap:butt;stroke-width:0.019125}
		.st8 {fill:#fffc9e;stroke:none;stroke-linecap:butt;stroke-width:0.019125}
		.st9 {fill:#ffcc00;stroke:none;stroke-linecap:butt;stroke-width:0.019125}
		.st10 {fill:none;stroke:none;stroke-linecap:butt;stroke-width:0.019125}
		.st11 {fill:none;fill-rule:evenodd;font-size:12px;overflow:visible;stroke-linecap:square;stroke-miterlimit:3}
	]]>
	</style>

	<g
   id="g62"
   transform="translate(-5.6693772,-5.6693265)">
		<title
   id="title4">Page-1</title>
		<g
   id="group18959-1"
   transform="translate(5.66929,-34.0157)">
			<title
   id="title6">SQL Server Automatic Tuning.18959</title>
			<g
   id="group18960-2">
				<title
   id="title8">Sheet.18960</title>
				<g
   id="shape18961-3"
   transform="translate(5.31496,-14.1746)">
					<title
   id="title10">Sheet.18961</title>
					<path
   d="M 38.98,88.26 V 61.83 C 38.84,57.1 30.17,53.86 19.49,53.86 8.82,53.86 0.13,57.1 0,61.83 l 0.01,26.43 c 0.13,4.73 8.8,8.12 19.48,8.12 10.67,0 19.36,-3.39 19.49,-8.12 z"
   class="st1"
   id="path12"
   inkscape:connector-curvature="0"
   style="fill:#ffffff;stroke:none;stroke-width:0.019125;stroke-linecap:butt" />
				</g>
				<g
   id="shape18962-5"
   transform="translate(5.31496,-5.31479)">
					<title
   id="title15">Sheet.18962</title>
					<path
   d="M 19.49,96.38 C 8.81,96.38 0.13,93.14 0,88.41 V 52.97 c 0.13,4.73 8.81,7.97 19.49,7.97 10.68,0 19.35,-3.24 19.49,-7.97 v 35.44 c -0.14,4.73 -8.82,7.97 -19.49,7.97 z"
   class="st2"
   id="path17"
   inkscape:connector-curvature="0"
   style="fill:#66d7f7;stroke:none;stroke-width:0.019125;stroke-linecap:butt" />
				</g>
				<g
   id="shape18963-7"
   transform="translate(10.6246,-44.2917)">
					<title
   id="title20">Sheet.18963</title>
					<ellipse
   cx="14.175"
   cy="91.948997"
   rx="14.175"
   ry="4.4289999"
   class="st3"
   id="ellipse22"
   style="fill:#d6e86c;stroke:none;stroke-width:0.019125;stroke-linecap:butt" />
				</g>
				<g
   id="shape18964-9"
   transform="translate(13.5301,-44.2935)">
					<title
   id="title25">Sheet.18964</title>
					<path
   d="m 0,94.64 c 2.59,-1.06 6.67,-1.75 11.27,-1.75 4.6,0 8.68,0.69 11.27,1.75 -2.59,1.06 -6.67,1.74 -11.27,1.74 C 6.67,96.38 2.59,95.7 0,94.64 Z"
   class="st4"
   id="path27"
   inkscape:connector-curvature="0"
   style="fill:#bad80a;stroke:none;stroke-width:0.019125;stroke-linecap:butt" />
				</g>
				<g
   id="shape18965-11"
   transform="translate(5.31496,-5.31657)">
					<title
   id="title30">Sheet.18965</title>
					<path
   d="M 19.49,60.95 V 96.38 C 14.87,96.38 0.19,95.14 0,88.41 V 52.97 c 0.19,6.82 14.7,7.98 19.49,7.98 z"
   class="st5"
   id="path32"
   inkscape:connector-curvature="0"
   style="fill:#00bcf2;stroke:none;stroke-width:0.019125;stroke-linecap:butt" />
				</g>
				<g
   id="shape18966-13"
   transform="translate(21.2581)">
					<title
   id="title35">Sheet.18966</title>
					<rect
   x="0"
   y="68.032402"
   width="28.3465"
   height="28.3456"
   class="st6"
   id="rect37"
   style="fill:#9b4f96;stroke:none;stroke-width:0.019125;stroke-linecap:butt" />
				</g>
				<g
   id="shape18967-15"
   transform="translate(28.3465,-0.0017716)">
					<title
   id="title40">Sheet.18967</title>
					<path
   d="M 21.26,96.38 H 14.17 L 0,68.03 h 21.26 z"
   class="st7"
   id="path42"
   inkscape:connector-curvature="0"
   style="fill:#a47aaf;stroke:none;stroke-width:0.019125;stroke-linecap:butt" />
				</g>
				<g
   id="shape18968-17"
   transform="translate(28.3447,-2.65917)">
					<title
   id="title45">Sheet.18968</title>
					<path
   d="M 14.17,87.52 0,96.38 5.31,87.52 0,82.21 14.17,73.35 8.86,82.21 Z"
   class="st8"
   id="path47"
   inkscape:connector-curvature="0"
   style="fill:#fffc9e;stroke:none;stroke-width:0.019125;stroke-linecap:butt" />
				</g>
				<g
   id="shape18969-19"
   transform="translate(28.3447,-2.65917)">
					<title
   id="title50">Sheet.18969</title>
					<path
   d="M 0,82.21 14.17,73.35 4.43,82.21 9.74,87.52 0,96.38 5.31,87.52 Z"
   class="st9"
   id="path52"
   inkscape:connector-curvature="0"
   style="fill:#ffcc00;stroke:none;stroke-width:0.019125;stroke-linecap:butt" />
				</g>
				<g
   id="shape18970-21"
   transform="translate(0,-0.0017716)">
					<title
   id="title55">Sheet.18970</title>
					<rect
   x="0"
   y="39.686798"
   width="56.692902"
   height="56.691101"
   class="st10"
   id="rect57"
   style="fill:none;stroke:none;stroke-width:0.019125;stroke-linecap:butt" />
				</g>
			</g>
		</g>
	</g>
</svg>

<?xml version="1.0" encoding="UTF-8" standalone="no"?>
<!DOCTYPE svg PUBLIC "-//W3C//DTD SVG 1.1//EN" "http://www.w3.org/Graphics/SVG/1.1/DTD/svg11.dtd">
<!-- Generated by Microsoft Visio, SVG Export SQL Server Automatic Tuning.svg Page-1 -->
<svg xmlns="http://www.w3.org/2000/svg" xmlns:xlink="http://www.w3.org/1999/xlink" xmlns:ev="http://www.w3.org/2001/xml-events"
		width="0.944882in" height="1.33858in" viewBox="0 0 68.0315 96.378" xml:space="preserve" color-interpolation-filters="sRGB"
		class="st11">
	<style type="text/css">
	<![CDATA[
		.st1 {fill:#ffffff;stroke:none;stroke-linecap:butt;stroke-width:0.019125}
		.st2 {fill:#66d7f7;stroke:none;stroke-linecap:butt;stroke-width:0.019125}
		.st3 {fill:#d6e86c;stroke:none;stroke-linecap:butt;stroke-width:0.019125}
		.st4 {fill:#bad80a;stroke:none;stroke-linecap:butt;stroke-width:0.019125}
		.st5 {fill:#00bcf2;stroke:none;stroke-linecap:butt;stroke-width:0.019125}
		.st6 {fill:#9b4f96;stroke:none;stroke-linecap:butt;stroke-width:0.019125}
		.st7 {fill:#a47aaf;stroke:none;stroke-linecap:butt;stroke-width:0.019125}
		.st8 {fill:#fffc9e;stroke:none;stroke-linecap:butt;stroke-width:0.019125}
		.st9 {fill:#ffcc00;stroke:none;stroke-linecap:butt;stroke-width:0.019125}
		.st10 {fill:none;stroke:none;stroke-linecap:butt;stroke-width:0.019125}
		.st11 {fill:none;fill-rule:evenodd;font-size:12px;overflow:visible;stroke-linecap:square;stroke-miterlimit:3}
	]]>
	</style>

	<g>
		<title>Page-1</title>
		<g id="group18523-1" transform="translate(5.66929,-34.0157)">
			<title>SQL Server Automatic Tuning.18523</title>
			<g id="group18524-2">
				<title>Sheet.18524</title>
				<g id="shape18525-3" transform="translate(5.31496,-14.1746)">
					<title>Sheet.18525</title>
					<path d="M38.98 88.26 L38.98 61.83 C38.84 57.1 30.17 53.86 19.49 53.86 C8.82 53.86 0.13 57.1 0 61.83 L0.01 88.26
								 C0.14 92.99 8.81 96.38 19.49 96.38 C30.16 96.38 38.85 92.99 38.98 88.26 Z" class="st1"/>
				</g>
				<g id="shape18526-5" transform="translate(5.31496,-5.31479)">
					<title>Sheet.18526</title>
					<path d="M19.49 96.38 C8.81 96.38 0.13 93.14 0 88.41 L0 52.97 C0.13 57.7 8.81 60.94 19.49 60.94 C30.17 60.94
								 38.84 57.7 38.98 52.97 L38.98 88.41 C38.84 93.14 30.16 96.38 19.49 96.38 Z" class="st2"/>
				</g>
				<g id="shape18527-7" transform="translate(10.6246,-44.2917)">
					<title>Sheet.18527</title>
					<ellipse cx="14.175" cy="91.949" rx="14.175" ry="4.429" class="st3"/>
				</g>
				<g id="shape18528-9" transform="translate(13.5301,-44.2935)">
					<title>Sheet.18528</title>
					<path d="M0 94.64 C2.59 93.58 6.67 92.89 11.27 92.89 C15.87 92.89 19.95 93.58 22.54 94.64 C19.95 95.7 15.87 96.38
								 11.27 96.38 C6.67 96.38 2.59 95.7 0 94.64 Z" class="st4"/>
				</g>
				<g id="shape18529-11" transform="translate(5.31496,-5.31657)">
					<title>Sheet.18529</title>
					<path d="M19.49 60.95 L19.49 96.38 C14.87 96.38 0.19 95.14 0 88.41 L0 52.97 C0.19 59.79 14.7 60.95 19.49 60.95
								 Z" class="st5"/>
				</g>
				<g id="shape18530-13" transform="translate(21.2581,2.84217E-13)">
					<title>Sheet.18530</title>
					<rect x="0" y="68.0324" width="28.3465" height="28.3456" class="st6"/>
				</g>
				<g id="shape18531-15" transform="translate(28.3465,-0.0017716)">
					<title>Sheet.18531</title>
					<path d="M21.26 96.38 L14.17 96.38 L0 68.03 L21.26 68.03 L21.26 96.38 Z" class="st7"/>
				</g>
				<g id="shape18532-17" transform="translate(28.3447,-2.65917)">
					<title>Sheet.18532</title>
					<path d="M14.17 87.52 L0 96.38 L5.31 87.52 L0 82.21 L14.17 73.35 L8.86 82.21 L14.17 87.52 Z" class="st8"/>
				</g>
				<g id="shape18533-19" transform="translate(28.3447,-2.65917)">
					<title>Sheet.18533</title>
					<path d="M0 82.21 L14.17 73.35 L4.43 82.21 L9.74 87.52 L0 96.38 L5.31 87.52 L0 82.21 Z" class="st9"/>
				</g>
				<g id="shape18534-21" transform="translate(0,-0.0017716)">
					<title>Sheet.18534</title>
					<rect x="0" y="39.6868" width="56.6929" height="56.6911" class="st10"/>
				</g>
			</g>
		</g>
	</g>
</svg>
